static/assets/images/icons/network-1.svg

<svg width="256" height="256" viewBox="0 0 256 256" fill="none" xmlns="http://www.w3.org/2000/svg">
<path d="M214.11 131.817C207.963 130.194 201.462 130.694 195.625 133.24C189.788 135.785 184.944 140.231 181.853 145.881L152.103 137.931C152.147 133.678 151.272 129.468 149.541 125.598C147.81 121.728 145.264 118.294 142.085 115.537C138.906 112.781 135.171 110.771 131.144 109.648C127.118 108.526 122.898 108.319 118.785 109.043L103.953 75.0618C108.832 71.1763 112.334 65.7751 113.926 59.6782C115.367 54.0814 115.147 48.1749 113.293 42.7057C111.438 37.2365 108.034 32.4502 103.51 28.952C98.9853 25.4539 93.5443 23.401 87.8747 23.053C82.2051 22.705 76.5616 24.0774 71.6578 26.9969C66.754 29.9163 62.8101 34.2515 60.3249 39.4544C57.8397 44.6572 56.9249 50.494 57.696 56.2265C58.4671 61.9591 60.8896 67.3301 64.6571 71.6602C68.4246 75.9903 73.3679 79.0851 78.8619 80.5532C82.7801 81.5903 86.8706 81.763 90.8596 81.0598L105.684 115.039C100.791 118.911 97.2865 124.318 95.7145 130.424C94.1424 136.529 94.5901 142.993 96.9883 148.813L67.701 171.005C64.5644 168.397 60.9173 166.502 57.0039 165.447C51.5099 163.979 45.7119 164.203 40.3432 166.092C34.9745 167.981 30.2762 171.449 26.8424 176.058C23.4086 180.667 21.3935 186.209 21.052 191.985C20.7105 197.761 22.0578 203.51 24.9237 208.506C27.7896 213.501 32.0453 217.519 37.1526 220.051C42.2599 222.583 47.9895 223.515 53.6167 222.729C59.244 221.944 64.5162 219.476 68.7667 215.638C73.0172 211.8 76.055 206.764 77.4961 201.168C79.0469 195.06 78.5985 188.603 76.2189 182.778L105.506 160.586C108.742 163.275 112.518 165.206 116.567 166.242C120.617 167.279 124.841 167.395 128.939 166.584C133.038 165.772 136.911 164.052 140.285 161.546C143.658 159.039 146.449 155.807 148.46 152.08L178.21 160.03C178.202 165.491 179.697 170.845 182.525 175.484C185.354 180.123 189.403 183.862 194.212 186.275C199.021 188.688 204.398 189.679 209.732 189.135C215.066 188.591 220.144 186.535 224.389 183.199C228.633 179.863 231.875 175.382 233.745 170.264C235.615 165.146 236.039 159.596 234.968 154.245C233.898 148.894 231.376 143.955 227.689 139.991C224.002 136.026 219.297 133.194 214.11 131.817ZM72.2588 48.5438C72.9794 45.7454 74.4983 43.2275 76.6235 41.3086C78.7488 39.3896 81.3849 38.1558 84.1985 37.763C87.0121 37.3703 89.8769 37.8364 92.4306 39.1023C94.9842 40.3681 97.1121 42.377 98.545 44.8748C99.978 47.3727 100.652 50.2472 100.481 53.1351C100.31 56.0229 99.3026 58.7943 97.5857 61.0988C95.8688 63.4032 93.5196 65.1373 90.8353 66.0817C88.1509 67.026 85.2519 67.1383 82.5049 66.4042C78.8234 65.4164 75.6769 62.9811 73.756 59.6326C71.8351 56.2842 71.2966 52.2962 72.2588 48.5438ZM46.0749 207.894C43.3278 207.16 40.8562 205.612 38.9724 203.447C37.0887 201.282 35.8774 198.597 35.4919 195.73C35.1063 192.864 35.5638 189.946 36.8063 187.344C38.0489 184.743 40.0209 182.575 42.4728 181.116C44.9247 179.656 47.7464 178.97 50.5812 179.144C53.416 179.318 56.1365 180.344 58.3987 182.093C60.6609 183.842 62.3631 186.235 63.2902 188.97C64.2172 191.705 64.3275 194.658 63.607 197.456C62.6374 201.207 60.2468 204.412 56.9599 206.369C53.673 208.326 49.7583 208.874 46.0749 207.894ZM119.846 151.995C117.099 151.261 114.628 149.713 112.744 147.548C110.86 145.383 109.649 142.698 109.263 139.831C108.878 136.965 109.335 134.047 110.578 131.445C111.82 128.844 113.792 126.676 116.244 125.217C118.696 123.757 121.518 123.071 124.353 123.245C127.187 123.419 129.908 124.445 132.17 126.194C134.432 127.943 136.135 130.336 137.062 133.071C137.989 135.806 138.099 138.759 137.378 141.557C136.409 145.308 134.018 148.513 130.731 150.47C127.444 152.427 123.53 152.975 119.846 151.995ZM203.181 174.263C200.434 173.529 197.962 171.982 196.079 169.817C194.195 167.652 192.984 164.966 192.598 162.1C192.212 159.234 192.67 156.315 193.912 153.714C195.155 151.113 197.127 148.945 199.579 147.485C202.031 146.026 204.853 145.339 207.687 145.513C210.522 145.687 213.243 146.714 215.505 148.463C217.767 150.212 219.469 152.605 220.396 155.34C221.323 158.074 221.434 161.028 220.713 163.826C219.743 167.576 217.353 170.782 214.066 172.738C210.779 174.695 206.864 175.244 203.181 174.263Z" fill="black"/>
</svg>

<svg xmlns="http://www.w3.org/2000/svg" fill="none" viewBox="0 0 256 256"><path fill="#000" d="M214.11 131.817a28.2 28.2 0 0 0-18.485 1.423c-5.837 2.545-10.681 6.991-13.772 12.641l-29.75-7.95a29.5 29.5 0 0 0-2.562-12.333 29 29 0 0 0-7.456-10.061 28.3 28.3 0 0 0-10.941-5.889 28 28 0 0 0-12.359-.605l-14.832-33.981c4.879-3.886 8.381-9.287 9.973-15.384a29.8 29.8 0 0 0-.633-16.972c-1.855-5.47-5.259-10.256-9.783-13.754a28.4 28.4 0 0 0-15.635-5.899 28.3 28.3 0 0 0-16.217 3.944 29.06 29.06 0 0 0-11.333 12.457 29.74 29.74 0 0 0-2.629 16.773 29.5 29.5 0 0 0 6.961 15.433 28.64 28.64 0 0 0 14.205 8.893 27.9 27.9 0 0 0 11.998.507l14.824 33.979c-4.893 3.872-8.397 9.279-9.97 15.385a29.2 29.2 0 0 0 1.274 18.389l-29.287 22.192a28.2 28.2 0 0 0-10.697-5.558 28.2 28.2 0 0 0-16.66.645 28.75 28.75 0 0 0-13.502 9.966 29.6 29.6 0 0 0-5.79 15.927 29.7 29.7 0 0 0 3.872 16.521c2.866 4.995 7.121 9.013 12.229 11.545a28.25 28.25 0 0 0 16.464 2.678 28.5 28.5 0 0 0 15.15-7.091 29.35 29.35 0 0 0 8.73-14.47 29.5 29.5 0 0 0-1.278-18.39l29.287-22.192a28.3 28.3 0 0 0 11.061 5.656 28 28 0 0 0 12.372.342 28.2 28.2 0 0 0 11.346-5.038 28.9 28.9 0 0 0 8.175-9.466l29.75 7.95a29.6 29.6 0 0 0 4.315 15.454 28.87 28.87 0 0 0 11.687 10.791 28.2 28.2 0 0 0 15.52 2.86 28.4 28.4 0 0 0 14.657-5.936 29.2 29.2 0 0 0 9.356-12.935 29.7 29.7 0 0 0 1.223-16.019 29.4 29.4 0 0 0-7.279-14.254 28.56 28.56 0 0 0-13.579-8.174M72.259 48.544a14.67 14.67 0 0 1 4.365-7.235 14.24 14.24 0 0 1 7.575-3.546 14.13 14.13 0 0 1 8.232 1.34 14.47 14.47 0 0 1 6.114 5.772 14.85 14.85 0 0 1 1.936 8.26 14.8 14.8 0 0 1-2.895 7.964 14.4 14.4 0 0 1-6.75 4.983 14.1 14.1 0 0 1-8.331.322c-3.682-.988-6.828-3.423-8.749-6.771a14.88 14.88 0 0 1-1.497-11.09m-26.184 159.35a14.3 14.3 0 0 1-7.103-4.447 14.75 14.75 0 0 1-3.48-7.717 14.87 14.87 0 0 1 1.314-8.386 14.5 14.5 0 0 1 5.667-6.228 14.15 14.15 0 0 1 8.108-1.972 14.2 14.2 0 0 1 7.818 2.949 14.6 14.6 0 0 1 4.891 6.877 14.9 14.9 0 0 1 .317 8.486c-.97 3.751-3.36 6.956-6.647 8.913a14.14 14.14 0 0 1-10.885 1.525m73.771-55.899a14.3 14.3 0 0 1-7.102-4.447 14.75 14.75 0 0 1-3.481-7.717 14.87 14.87 0 0 1 1.315-8.386 14.5 14.5 0 0 1 5.666-6.228 14.15 14.15 0 0 1 8.109-1.972 14.2 14.2 0 0 1 7.817 2.949 14.6 14.6 0 0 1 4.892 6.877 14.9 14.9 0 0 1 .316 8.486c-.969 3.751-3.36 6.956-6.647 8.913a14.14 14.14 0 0 1-10.885 1.525m83.335 22.268a14.3 14.3 0 0 1-7.102-4.446 14.76 14.76 0 0 1-3.481-7.717 14.87 14.87 0 0 1 1.314-8.386 14.53 14.53 0 0 1 5.667-6.229 14.15 14.15 0 0 1 8.108-1.972 14.2 14.2 0 0 1 7.818 2.95 14.6 14.6 0 0 1 4.891 6.877 14.9 14.9 0 0 1 .317 8.486c-.97 3.75-3.36 6.956-6.647 8.912a14.14 14.14 0 0 1-10.885 1.525"/></svg>
